X: 1006
T: Her Mevsim, İçimden...
C: Semahat Özdenses
O: Turkey
F: http://compmusic.upf.edu/node/140
N: ussak--sarki--duyek--her_mevsim--semahat_ozdenses
N: makam= ussak
N: form= sarki
N: usul= duyek = 8/4
M: 8/4
L: 1/16
K: C _2/4B   
Q: 1/4=132
%%MIDI tuningsystem comma53
c2 d2 e2 {f}ed dc d4 z2  | d2 {e}de c2 B2 cd BA A4  | \
w:  Her  *  mev *  *  *  sim   |  i *  çim *  *  *  den   | 
e2 eg e2 d2 d2 c2 d2 ed  | 
w:  ge lir  *  *  *  ge *  çer  | 
d2 f2 e2 d2 cB BA A4  | e2 eg e2 d2 d2 c2 d2 {f}ed  | \
w:  sin   |  ge lir  *  *  *  ge *  çer  | 
d8 GA Bc d4  | 
w:  sin   SAZ  | 
z2 f4 e2 fg e2 fg ef  | d2 e4 d2 ef d2 ef de  | \
w:   |   | 
c2 d4 c2 B3A B3/2A/ Bc  | 
w:   | 
d6 ef g2 fe d4  | z2 f4 a2 g2 f2 e2 d2  | \
w:   |  Sen  ve fâ *  sız   | 
ef g4 fe d4 z4  | 
w:  yol *  *  *  *  cu   | 
c2 e4 dc B3/2A/ B2 z4  | B2 d4 cB A6 G2  | \
w:  kal bim   |  kal bim   | 
A2 f2 e2 ed d3c c3B  | 
w:  kal bim  *  vî *  rân   | 
B3A c2 BA A8  | z2 f4 e2 fg e2 fg ef  | \
w:  e *  der *  *  sin    |  SAZ  | 
d2 e4 d2 ef d2 ef de  | 
w:   | 
c2 d4 c2 B3A B3/2A/ Bc  | d6 ef g2 fe d4  | \
w:   |   | 
z2 f4 a2 g2 f2 e2 d2  | 
w:  Sen  ve fâ *  sız   | 
ef g4 fe d4 z4  | c2 e4 dc B3/2A/ B2 z4  | \
w:  yol *  *  *  *  cu   |  kal bim   | 
B2 d4 cB A6 G2  | 
w:  kal bim   | 
A2 f2 e2 ed d3c c3B  | B3A c2 BA A8  | \
w:  kal bim  *  vî *  rân   |  e *  der *  *  sin    | 
z2 f4 e2 fg e2 fg ef  | 
w:  SAZ  | 
d2 e4 d2 ef d2 ef de  | c2 d4 c2 B3A B3/2A/ Bc  | \
w:   |   | 
d6 ^3/4fg ag fg a4  | 
w:   | 
z2 g4 a2 a8  | z4 c'2 ba a8  | z2 g4 g2 c'8  | \
w:  Mer ha ba   |  de me *  den   |  el ve dâ   | 
c'8 c'b ag c'4  | z2 b4 b2 d'4 c'2 b2  | 
w:   |  el ve dâ   | 
a2 g2 a2 {c'}ba a4 ag fe  | de f4 e2 fg e2 fg ef  | 
w:  der *  *  *  *  *  sin   SAZ  |   | 
d2 e4 d2 ef d2 ef de  | c2 d4 c2 B3A B3/2A/ Bc  | \
w:   |   | 
d6 ef g2 fe d4  | 
w:   | 
z2 f4 a2 g2 f2 e2 d2  | ef g4 fe d4 z4  | \
w:  Sen  ve fâ *  sız   |  yol *  *  *  *  cu   | 
c2 e4 dc B3/2A/ B2 z4  | 
w:  kal bim   | 
B2 d4 cB A6 G2  | A2 f2 e2 ed d3c c3B  | \
w:  kal bim   |  kal bim  *  vî *  rân   | 
B3A c2 BA A8  | 
w:  e *  der *  *  sin    | 
|


